prod/images/flags-4x3/nr.svg

<svg viewBox="0 0 640 480" xmlns="http://www.w3.org/2000/svg" xmlns:xlink="http://www.w3.org/1999/xlink"><clipPath id="a"><path d="m-54.7 0h682.7v512h-682.7z"/></clipPath><g clip-path="url(#a)" fill-rule="evenodd" stroke-width="1pt" transform="matrix(.9375 0 0 .9375 51.3 0)"><path d="m-140 0h1024v512h-1024z" fill="#002170"/><path d="m-140 234.1h1024v43.9h-1024z" fill="#ffb20d"/><path d="m161.8 438-33-33-10.5 45.4-12-45-31.9 34 12.1-45-44.5 13.5 33-33-45.4-10.6 45-12-34-31.8 45 12-13.6-44.5 33 33 10.6-45.4 12 45 31.8-34-12 45 44.5-13.5-33 33 45.4 10.5-45 12 34 32-45-12.2z" fill="#fff"/></g></svg>

<svg viewBox="0 0 640 480" xmlns="http://www.w3.org/2000/svg"><clipPath id="a"><path d="M-54.7 0H628v512H-54.7z"/></clipPath><g clip-path="url(#a)" fill-rule="evenodd" stroke-width="1pt" transform="translate(51.3) scale(.9375)"><path d="M-140 0H884v512H-140z" fill="#002170"/><path d="M-140 234.1H884V278H-140z" fill="#ffb20d"/><path d="M161.8 438l-33-33-10.5 45.4-12-45-31.9 34 12.1-45L42 407.9l33-33-45.4-10.6 45-12-34-31.8 45 12L72 288l33 33 10.6-45.4 12 45 31.8-34-12 45 44.5-13.5-33 33 45.4 10.5-45 12 34 32-45-12.2z" fill="#fff"/></g></svg>
